public/build/img/sistema/panelventas-ng.svg

<svg width="40" height="40" viewBox="0 0 40 40" fill="none" xmlns="http://www.w3.org/2000/svg">
<path d="M21.6669 1.875V2.69531C22.1114 2.78906 22.5419 2.90625 22.9308 3.02344C23.8197 3.28906 24.3475 4.32031 24.1114 5.32031C23.8753 6.32031 22.9586 6.91406 22.0697 6.64844C21.3127 6.42187 20.6044 6.26562 19.9724 6.25781C19.4655 6.25 18.9516 6.39062 18.6252 6.60156C18.4794 6.70312 18.4099 6.78906 18.3821 6.83594C18.3613 6.875 18.3335 6.92969 18.3335 7.05469C18.3335 7.07812 18.3335 7.09375 18.3335 7.10156C18.3474 7.11719 18.396 7.19531 18.5627 7.30469C18.9655 7.57812 19.5627 7.78906 20.4655 8.09375L20.528 8.11719C21.2988 8.375 22.3266 8.72656 23.16 9.3125C24.1114 9.98437 24.9725 11.1016 24.9933 12.8203C25.0142 14.5781 24.2017 15.8594 23.1391 16.6094C22.6739 16.9297 22.1739 17.1562 21.66 17.2969V18.125C21.66 19.1641 20.9169 20 19.9933 20C19.0697 20 18.3266 19.1641 18.3266 18.125V17.2344C17.6669 17.0547 17.0627 16.8203 16.5488 16.625C16.403 16.5703 16.2641 16.5156 16.1321 16.4688C15.2571 16.1406 14.7849 15.0781 15.0766 14.0937C15.3682 13.1094 16.3127 12.5781 17.1877 12.9062C17.3682 12.9766 17.5349 13.0391 17.6946 13.1016C18.6391 13.4609 19.3197 13.7187 20.0488 13.75C20.6044 13.7734 21.0975 13.625 21.3822 13.4297C21.5141 13.3359 21.5766 13.2578 21.6044 13.2031C21.6322 13.1562 21.6669 13.0625 21.66 12.8828V12.8672C21.66 12.7891 21.66 12.7031 21.3822 12.5078C20.9863 12.2266 20.3891 12.0078 19.5002 11.7031L19.3683 11.6562C18.6183 11.4062 17.6321 11.0703 16.8405 10.5312C15.903 9.89844 15.0002 8.8125 14.9932 7.08594C14.9863 5.29687 15.8891 4.07031 16.9169 3.38281C17.3613 3.08594 17.8405 2.88281 18.3196 2.74219V1.875C18.3196 0.835938 19.0627 0 19.9863 0C20.91 0 21.653 0.835938 21.653 1.875H21.6669ZM39.4588 26.2734C40.3685 27.6641 40.1046 29.6172 38.8685 30.6406L30.0767 37.9297C28.4517 39.2734 26.4933 40 24.4725 40H13.3335H2.22225C0.993066 40 0 38.8828 0 37.5V32.5C0 31.1172 0.993066 30 2.22225 30H4.77783L7.89592 27.1875C9.47233 25.7656 11.4307 25 13.4515 25H18.8891H20.0002H24.4447C25.6739 25 26.667 26.1172 26.667 27.5C26.667 28.8828 25.6739 30 24.4447 30H20.0002H18.8891C18.278 30 17.778 30.5625 17.778 31.25C17.778 31.9375 18.278 32.5 18.8891 32.5H27.2642L35.5768 25.6094C36.8129 24.5859 38.549 24.8828 39.4588 26.2734ZM13.4446 30H13.3821C13.4029 30 13.4238 30 13.4446 30Z" fill="black"/>
</svg>

<svg width="40" height="40" fill="none" xmlns="http://www.w3.org/2000/svg"><path d="M21.667 1.875v.82c.444.094.875.211 1.264.328.889.266 1.416 1.297 1.18 2.297-.236 1-1.152 1.594-2.041 1.328-.757-.226-1.466-.382-2.098-.39-.507-.008-1.02.133-1.347.344a.836.836 0 00-.243.234.408.408 0 00-.049.219v.047c.014.015.063.093.23.203.402.273 1 .484 1.902.789l.063.023c.77.258 1.799.61 2.632 1.195.951.672 1.813 1.79 1.833 3.508.021 1.758-.791 3.04-1.854 3.79-.465.32-.965.546-1.479.687v.828c0 1.04-.743 1.875-1.667 1.875-.923 0-1.666-.836-1.666-1.875v-.89c-.66-.18-1.264-.415-1.778-.61-.146-.055-.285-.11-.417-.156-.875-.328-1.347-1.39-1.055-2.375.291-.985 1.236-1.516 2.11-1.188.181.07.348.133.508.196.944.359 1.625.617 2.354.648.555.023 1.049-.125 1.333-.32a.684.684 0 00.222-.227c.028-.047.063-.14.056-.32v-.016c0-.078 0-.164-.278-.36-.396-.28-.993-.5-1.882-.804l-.132-.047c-.75-.25-1.736-.586-2.527-1.125-.938-.633-1.84-1.719-1.848-3.445-.007-1.79.896-3.016 1.924-3.703.444-.297.923-.5 1.403-.64v-.868C18.32.835 19.063 0 19.986 0c.924 0 1.667.836 1.667 1.875h.014zm17.792 24.398c.91 1.391.646 3.344-.59 4.368l-8.792 7.289C28.452 39.273 26.493 40 24.472 40H2.224C.992 40 0 38.883 0 37.5v-5C0 31.117.993 30 2.222 30h2.556l3.118-2.813C9.472 25.767 11.43 25 13.45 25h10.994c1.229 0 2.222 1.117 2.222 2.5s-.993 2.5-2.222 2.5H18.89c-.612 0-1.112.563-1.112 1.25 0 .688.5 1.25 1.111 1.25h8.375l8.313-6.89c1.236-1.024 2.972-.727 3.882.663zM13.445 30h-.063.063z" fill="#000"/></svg>
